X: 22793
T: Lanigan's Ball
R: jig
M: 6/8
K: Eminor
|:EFE G2A|B2A B^cd|DED F2G|ABA AFD|
EFE G2A|B2A B^cd|eBB cBA|1 BGE E3:|2 BGE E2d||
|:e2f g2e|fag fed|e2f g2e|fB^A B3|
e2f g2e|fag fed|eBB cBA|1 BGE E3:|2 BGE E2D||

